X:1
T:Title
%%score ( 1 2 3 ) { ( 4 6 7 ) | ( 5 8 ) }
L:1/8
Q:1/4=115
M:4/4
K:F
V:1 treble nm="Grand Piano, Staff 1"
V:2 treble 
V:3 treble 
V:4 treble nm="Choir Pad, Gloria (Barnes)"
V:6 treble 
V:7 treble 
V:5 bass 
V:8 bass 
V:1
 [FA]2 [FA]2 [FA]2 [Fc]2 | c4 z4 | [FA]2 [EG]2 [FA]2 [Fc]2 | A4 z4 | [FA]2 [FA]2 [EA]2 [Fc]2 | %5
w: By~French~carol,~arr.~by~Edward~Shippen~Barnes * * *|||||
 c4 z4 | [EA]2 [DG]2 [FA]2 [Gc]2 | A4 z4 | c4 .d2 z2 | B4 .c2 z2 | A4 .B2 z2 | [CG]3 C C4 | %12
w: |||||||
 [CF]2 [EG]2 [FA]2 [FB]2 | [FA]4 [EG]4 | c4 .d2 z2 | B4 .c2 z2 | A4 .B2 z2 | [CG]3 C C4 | %18
w: ||||||
 [CF]2 [EG]2 [FA]2 [FB]2 | [FA]4 [EG]4 | [CF]8 |] %21
w: |||
V:2
 x8 | G2 E[EB] [FA]4 | x8 | F2 z G F4 | x8 | F2 z B [FA]4 | x8 | F2 z G F4 | %8
 F2 AG F-[F-c][F-B][F-A] | F2 GF E-[E-B][E-A][E-G] | E2 FE D-[D-A][D-G][DF] | x8 | x8 | x8 | %14
 F2 AG F-[F-c][F-B][F-A] | F2 GF E-[E-B][E-A][E-G] | E2 FE D-[D-A][D-G][DF] | x8 | x8 | x8 | x8 |] %21
V:3
 x8 | x8 | x8 | z2 E2 z4 | x8 | z2 G2 z4 | x8 | z2 E2 z4 | x8 | x8 | x8 | x8 | x8 | x8 | x8 | x8 | %16
 x8 | x8 | x8 | x8 | x8 |] %21
V:4
 C2 C2 C2 A,2 | G,2 C2 C4 | C2 C2 C2 C2 | C4[K:bass] z4 | C2 C2 C2 A,2 | A,2[K:treble] C2 C4 | %6
 C2 D2 D2 C2 | .C4 A,4 | A,4 D4- | D4 C4- | C4[K:bass] .B,4 | G,2 F,2 E,4 | %12
 F,2[K:treble] C2 C2 D2 | C4 C4 | A,4 D4- | D4 C4- | C4[K:bass] .B,4 | G,2 F,2 E,4 | %18
 F,2[K:treble] C2 C2 D2 | C6 B,2 | A,8 |] %21
V:5
 F,2 F,2 F,2 F,2 | E,2 C,2 F,4 | F,2 C,2 F,2 A,2 | z4 F,4 | F,2 F,2 A,2 F,2 | D,2 E,2 F,4 | %6
 A,,2 B,,2 D,2 E,2 | F,2 z B, F,4 | F,4 D,2 F,2 | G,4 C,2 E,2 | F,4 B,,2 z A, | E,2 D,2 C,2 B,,2 | %12
 A,,2 C,2 F,2 B,,2 | C,4 C,4 | F,4 D,2 F,2 | G,4 C,2 E,2 | F,4 B,,2 z A, | E,2 D,2 C,2 B,,2 | %18
 A,,2 C,2 F,2 B,,2 | C,8 | F,8 |] %21
V:6
 x8 | x8 | x8 | z2[K:bass] z B, A,4 | x8 | x2[K:treble] x6 | x8 | x8 | x8 | x8 | x4[K:bass] x4 | %11
 x8 | x2[K:treble] x6 | x8 | x8 | x8 | x4[K:bass] x4 | x8 | x2[K:treble] x6 | x8 | x8 |] %21
V:7
 x8 | x8 | x8 | z2[K:bass] C,2 z4 | x8 | x2[K:treble] x6 | x8 | x8 | x8 | x8 | x4[K:bass] x4 | x8 | %12
 x2[K:treble] x6 | x8 | x8 | x8 | x4[K:bass] x4 | x8 | x2[K:treble] x6 | x8 | x8 |] %21
V:8
 x8 | x8 | x8 | x8 | x8 | x8 | x8 | z2 C,2 z4 | x8 | x8 | z4 z2 D,2 | x8 | x8 | x8 | x8 | x8 | %16
 z4 z2 D,2 | x8 | x8 | x8 | x8 |] %21

